X:1
T:Toréador
T:Toréador
T:chanson hispano-italienne
T:Francis Poulenc
T:Jean Cocteau
C:Francis Poulenc
Z:Jean Cocteau
%%score ( 1 2 ) { ( 3 4 ) | ( 5 6 7 ) }
L:1/8
Q:1/4=120
M:3/8
K:D
V:1 treble nm="Voice"
V:2 treble 
V:3 treble nm="Piano"
V:4 treble 
V:5 bass 
V:6 bass 
V:7 bass 
V:1
"^Allant" z3 | z3 | z3 | z3 | z3 | z3 | z3 | z3 | D2 F | A2 A | A c B | A2 F | F2 C | B,2 B, | %14
w: ||||||||Pe- pi-|ta rei-|ne de Ve-|ni- se|Quand tu|vas sous|
w: ||||||||C'est de-|main jour|de Saint Es-|cu- re|Qu'au- ra|lieu le|
w: ||||||||Que de|ca- va-|liers! que de|mon- de!|Rem- plit|l'a- rè-|
 C B, F | C3 | z D F | A2 A | A c B | A2 F | z2 D | _E2 G- | G2 (3_E/ =F/ E/ | D3 | z3 | z3 | z3 | %27
w: ton mi- ra-|dor|Tous les|gon- do-|li- ers se|di- sent:|Prends|gar- de|_ To- ré- a-|dor!||||
w: com- bat à|mort|Le ca-|nal est|plein de voi-|tu- res|Fê-|tan le|_ To- ré- a-|dor!||||
w: ne jus- qu'au|bord|On vient|de cent|lieues à la|ron- de|T'ac-|cla- mer|_ To- ré- a-|dor!||||
 z d d | z d d | d =c _e | d3 | d3 | z3 | z d =c | _B A G- | G =F _E | D3 | z3 | z3 | A3 | _B2 B | %41
w: * ton|* per-|son- ne ne|rè-|gne||Dans le|grand pa- lais|_ où tu|dors|||Et|près de|
w: * Ve-|* se|plus d'u- ne|bel-|le||Pal- pi-|te pour sa-|* voir ton|sort|||Mais|tu mé-|
w: C'est fait|il en-|tre dans l'a-|rè-|ne||A- vec|plus de fleg-|* me qu'un|lord|||Mais|il peut|
 c2 =B | E2 G | B2 A | D2 =F | A z (3_E/ =F/ E/ | D3 | z3 | z3 | z3 | B,3 | A _B =c | A G D | %53
w: toi la|viei- le|duè- gne|gue- te|le To- ré- a-|dor!||||To-|ré- a- dor|bra- ve des|
w: pri- ses|leurs den-|tel- les|* tu|souffres To- ré- a-|dor!||||Car|ne voy- ant|pas ap- pa-|
w: a- van-|cer à|pei- ne|le pau-|vre To- ré- a-|dor!||||Il|ne reste à|son rê- ve|
 A2 G |[M:2/8]"^très rubato" _B A/ B/ | =c/ _B/ c/ d/ |[M:3/8] e3 | =f2 e | d2 =c | _B A G | A2 G | %61
w: bra- ves|Lors- que sur|la pla- ce Saint|marc|Le tau-|reau en|fu- reur qui|ba- ve|
w: raî- tre.|Ca- ché der-|rière un o- ran-|ger|Pé- pi-|ta seule|à sa fe-|nê- tre|
w: mor- ne|Que de mou-|rir sous tous les|yex|En sen-|tant pé-|né- trer des|cor- nes|
 =F2 E | D2 D | D =C E | D3 | z3 | z3 | z3 | z/ D/ _E/ =F/ G/ A/ | _B z3/2 G/ | =c A z | z3 | %72
w: Tom- be|tué *|par ton poi-|gnard||||Ce n'est pas l'or- gueil|qui ca-|res- se||
w: Tu mé-|di- tes|de te ven-|ger.||||Sous ton caf- tan pas-|se ta|da- gue||
w: Dans son|tris- te|front sou- ci-|eux||||Car Pé- pi- ta se|montre as-|si- se||
 z/ D/ _E/ =F/ G/ A/ | _E z3/2 =F/ | D z z | z3 | z/ D/ _E/ =F/ G/ A/ | _B z3/2 G/ | =c A z | %79
w: Ton cœur sous la ba-|ou- ta|d'or||Car pour u- ne jeu-|ne dé-|es- se|
w: La ja- lou- sie au|cœur te|mord||Et seul a- vec le|bruit des|va- gues|
w: Of- frant son re- gard|et son|corps||Au plus vieux do- ge|de Ve-|ni- se|
[Q:1/4=118]"_Cédez"[Q:1/4=105]"^Cédez" (2:3:2D _E | (2:3:2=F G |"^long" !fermata!A3- | %82
w: Tu _|_ _|brû-|
w: Tu _|_ _|pleu-|
w: Et _|_ _|rit|
 A z (3E/ =F/ E/ | D3 | z3 | z3 | z3 ||"^REFRAIN ( la 3ème fois plus lent)" d e c | d{/d} B z | %89
w: les to- ré- a-|dor.||||Belle Es- pa-|gno- le|
w: res to- ré- a-|dor.||||||
w: _ to- ré- a-|dor.||||||
 d e c | d{/d} B z | d e c | d{/d} B z | d c A | F3 | d e c | d{/d} B z | d e c | d{/d} B z | %99
w: Dans ta gon-|do- le|Tu ca- ra-|co- les|Car- men- ci-|ta|Sous ta man-|til- le|Œil qui pé-|til- le|
w: ||||||||||
w: ||||||||||
 d e c | d{/d} B z |1,2 D3- | D _E =F | G =F _E | D3 | z _E =F | G =F _E | D3 | z _E =F | %109
w: Bou- che qui|bril- le|C'est|_ Pé- pi-|ta a a|a|a a|a a a|a|a a|
w: ||||||||||
w: ||||||||||
 G =F (3(_E/F/E/) :|3[Q:1/4=95]"^T" D3- | D _E =F |!<(! G d/!<)!"^long" !fermata!z =c/ || D3- | %114
w: a a a _ _|C'est|_ Pé- pi-|ta a a|a|
w: |||||
w: |||||
 D _E =F | G d/ !fermata!z =c/ | D3- | D _E =F | G2 d/ !fermata!z =c/ | D"_14" z z | z3 | z3 | z3 | %123
w: _ a a|a a a|a|_ a a|a a a|a||||
w: |||||||||
w: |||||||||
 z3 | z3 |] %125
w: ||
w: ||
w: ||
V:2
 x3 | x3 | x3 | x3 | x3 | x3 | x3 | x3 | x3 | x3 | x3 | x3 | x3 | x3 | x3 | x3 | x3 | x3 | x3 | %19
w: |||||||||||||||||||
w: |||||||||||||||||||
w: |||||||||||||||||||
 x3 | x3 | x3 | x3 | x3 | x3 | x3 | x3 | d2 d | d2 d | x3 | x3 | x3 | x3 | x3 | x3 | x3 | x3 | x3 | %38
w: ||||||||Sur *|cœur *||||||||||
w: ||||||||De *|ni- *||||||||||
w: |||||||||||||||||||
 x3 | x3 | x3 | x3 | x3 | x3 | z2 x | x3 | x3 | x3 | x3 | x3 | x3 | x3 | x3 | x3 |[M:2/8] x2 | x2 | %56
w: ||||||||||||||||||
w: ||||||||||||||||||
w: ||||||||||||||||||
[M:3/8] x3 | x3 | x3 | x3 | x3 | x3 | D3 | x3 | x3 | x3 | x3 | x3 | x3 | x3 | x3 | x3 | x3 | x3 | %74
w: ||||||||||||||||||
w: ||||||||||||||||||
w: ||||||||||||||||||
 x3 | x3 | x3 | x3 | x3 | x3 | x3 | x3 | x E x | x3 | x3 | x3 | x3 || x3 | x3 | x3 | x3 | x3 | x3 | %93
w: |||||||||||||||||||
w: |||||||||||||||||||
w: ||||||||du|||||||||||
 x3 | x3 | x3 | x3 | x3 | x3 | x3 | x3 |1,2 x3 | x3 | x3 | x3 | x3 | x3 | x3 | x3 | x3 :|3 x3 | %111
w: ||||||||||||||||||
w: ||||||||||||||||||
w: ||||||||||||||||||
 x3 | x3 || x3 | x3 | x3 | x3 | x3 | x4 | x3 | x3 | x3 | x3 | x3 | x3 |] %125
w: ||||||||||||||
w: ||||||||||||||
w: ||||||||||||||
V:3
 (D/F/ [A,A]2) | ([Cc] [DA]2) | (F/D/ [G,B,]2) | (F [G,CA]2) |!p! (d/f/ [Ada]2) | ([cfc'] [da]2) | %6
 (f/d/ [GB]2) | (f [Gca]2) |!mf! (D2 F | A3-) | A3- | A3 | (f2 c | B3-) | (B3 | B3) | z (DF | %17
 A3-) | A3- | A3 | z2 (D | _E2 G- | G2) (3(_E/=F/E/ | (D2) C- | C=C_E | D2 C- | C=C_E | (D3) | %28
 _E3 | G2 =F | D3 | _E3 | G2 =F) | ([A,A]3 | [_B,_B]3 | [Dd]2 [=C=c] | [A,A]3 | [_B,_B]3 | %38
 [Dd]2 [=C=c]) | (A3 | _B2 B | c2 =B | E2 G | B2 A | D2 =F | A2) (3(E/=F/E/ | (D3) | D)(=CE | %48
 (D3) | D)(=CE | (_B3) | A_B=c | AGD | A2 G) |[M:2/8]"_très rubato" (_BA/B/ | =c/_B/c/d/ | %56
[M:3/8] e3) | (=f2 e | d2 =c | _BAG | A2 G) | (=F2 E | D2 D | D=CE | D3) | z3 | z3 | z3 | %68
 z [A,D^FA] z | x z3/2 [=C_EGA]/ | z [A,DFA] z | z3 | z [A,DFA] z | z z3/2 !>![=c_ega]/ | %74
 z [A,DFA] z | z3 | z [A,DFA] z | z z3/2 !>![=C_EGA]/ | z [A,DFA] z | z3 | x3 | !fermata!_e3- | %82
 e2 z | (D2 C- | C=C_E | D2 C- | C=C_E) ||!mf! .d.e.c | .d{/d} B2 | .d.e.c | .d{/d} B2 | d'b^g | %92
 d3 | z [A,CF][B,DFA] | z [A,CF][CFc] | z ec | d{/d} B2 | z ec | d{/d} B2 | z ec | d{/d} B2 |1,2 %101
 (D3- | D_E=F | G=F_E) | (D3- | D_E=F | G=F_E) | D3- | D_E=F | G=F (3(_E/F/E/) :|3!f! !>!D3 | %111
 !>!_E3 |!ff! G !>![dgad']/ !fermata!z/ z || !>!D3 | !>!_E3 | G !>![dgad']/ !fermata!z/ z | !>!D3 | %117
 !>!_E3 | G [dgad']/ !fermata!z/ z z | %119
 (7:6:6z/"^m.d." (A,/4D/4=F/4A/4)"_m.g."[I:staff +1](_B,/4(7:6:7_E/4^F/4_B/4)[I:staff -1](A/4d/4=f/4"^m.d."a/4) | %120
 z3 |!8va(! [a'd''f''a''] z2!8va)! | z3 | z3 |[K:bass] D, z z |] %125
V:4
 D D2 | F3 | F3 | x3 | x3 | x3 | x3 | x3 | z A,2 | z [A,CF]2 | z F2 | z [CF]2 | z [FAc]2 | %13
 z [B,DF]2 | z [DF]2 | z [DF]2 | x A,2 | z [A,CF]2 | z [CF]2 | z [CF]2 | x3 | z [G,A,]2 | x3 | %23
 z [A,^FA]2 | x3 | z [A,FA]2 | x3 | z [A,FA]2 | z [_B,G_B]2 | z [DAd]2 | z [A,FA] z | z [_B,G_B]2 | %32
 z [DAd]2 | z [D^F]2 | z [_EG]2 | z [Bc]2 | z [DF]2 | z [_EG]2 | z [GA]2 | z [A,DF]2 | %40
 z [_B,_EG]2 | z [D^G]2 | z [G,C]2 | z [=CF]2 | z [=F,_B,]2 | z [A,=CE]2 | z [A,EA]2 | x3 | %48
 z [A,EA]2 | x3 | z [D=F]2 | x3 | x3 | z [A,=CE]2 |[M:2/8] z/ [D=F]3/2 | x2 |[M:3/8] z ([EA]G) | %57
 z [=F_B]2 | z [=F_B]2 | x3 | z [_B,E]2 | z [=F,_B,]2 | z [=F,_B,]2 | [E,^G,]3 | x3 | x3 | x3 | %67
 x3 | x3 | x3 | x3 | x3 | x3 | x3 | x3 | x3 | x3 | x3 | x3 | x3 | x3 | [B,EGA]3- | [B,EGA]2 x | %83
 z [A,FA]2 | x3 | z [A,FA]2 | x3 || [DF][EF][DF] | [DF][DF][DF] | [EG][EG][EG] | [EG][EG][EG] | %91
 ^g/^e/e/d/c/B/ | ^G ^E2 | x3 | x3 | x [EF][DF] | [DF][DF][DF] | x [EG][EG] | [EG][EG][EG] | %99
 x [^E^G][EG] | [^E^G][EG][EG] |1,2 z [A,FA][A,FA] | z [G,_B,]2 | z [A,=C]2 | z [A,^FA][A,FA] | %105
 z [G,_B,]2 | z [A,=C]2 | z [A,FA][A,FA] | z [G,_B,]2 | z C2 :|3 z [A,FA]2 | z!<(! [_B,G_B]2 | %112
 x!<)! x2 || z [A,FA]2 | z [_B,G_B]2 | x3 | z [A,FA]2 | z [_B,G_B]2 | x4 | x3 | x3 | %121
!8va(! x3!8va)! | x3 | x3 |[K:bass] x3 |] %125
V:5
!mf! [D,,D,]3 | [B,,,B,,]3 | E,,3 | [A,,,A,,]3 | z [A,DF]2 | z [B,DF]2 | z [E,B,D]2 | z [G,CF]2 | %8
 [D,,D,]3 | z2 (A, | A,CB, | A,2 F,) | C3 | B,2 (B, | CB,F | C3) | [D,,D,]3 | [A,,,A,,]3 | A,CB, | %19
 A,2 F, | z2 [D,,D,] | [=C,,=C,]3 | [=F,,,=F,,]3 | (D,2 C,- | C,=C,_E, | D,2 C,- | C,=C,_E, | %27
 [D,,D,]) z z | [=C,,=C,] z z | z [A,_E]2 | [D,,D,] z z | [=C,,=C,] z z | [=F,,,=F,,] z z | %33
 [D,,D,]3 | [=C,,=C,]3 | [=F,,,=F,,]3 | [D,,D,]3 | [=C,,=C,]3 | [=F,,,=F,,]3 | [D,,D,]3 | %40
 [=C,,=C,]3 | E,3 | A,,3 | [D,,D,]3 | [G,,,G,,]3 | [=C,,=C,]3 | =F,, z z | =C,, z z | =F,, z z | %49
 =C, z z | z [=F,_B,]2 | z3 | z3 | [=C,,,=C,,]3 |[M:2/8] [G,,,G,,]2 | z2 |[M:3/8] =C,, z z | %57
 D,, z z | z3 | G,, z z | =C, z z | D, z z | G,, z z | =C,, z z | z [=F,A,]2 | =C,, z z | D,3 | %67
 =C,, z z | D, z z | [A,,,A,,] z z | [D,,D,] z z | z3 | [D,,D,] z z | %73
 [A,,,A,,] z3/2[I:staff -1] [A,_EG]/ |[I:staff +1] [D,,D,] z z | z3 | [D,,D,] z z | [A,,,A,,] z z | %78
 [D,,D,] z z | z3 | (8:6:8z/ =C,/-G,/-A,/-[I:staff -1]_B,/-_E/-G/-A/- | %81
[I:staff +1] !fermata![C,G,A,]3- | [C,G,A,]2 z | (D,2 C,- | C,=C,_E, | D,2 C,- | C,=C,_E,) || %87
 .D,.A,.B, | .A,,.A,.B, | .D,.A,.B, | .A,,.A,.B, | .D,.A,.B, | .A,,.A,.B, | [D,,D,] z z | %94
 [A,,,A,,] z z | .D,.A,.B, | .A,,.A,.B, | .D,.A,.B, | .A,,.A,.B, | .D,.A,.B, | .A,,.A,.B, |1,2 %101
 [D,,D,] z z | [=C,,=C,] z z | =F,, z z | [D,,D,] z z | [=C,,=C,] z z | =F,, z z | [D,,D,] z z | %108
 [=C,,=C,] z z | [A,,,A,,] z z :|3 [D,,D,]3 | [=C,,=C,]3 | [=F,,,=F,,] [A,_EA]/ !fermata!z/ z || %113
 [D,,D,]3 | [=C,,=C,]3 | [=F,,,=F,,] [A,_EA]/ !fermata!z/ z | [D,,D,]3 | [=C,,=C,]3 | %118
 [=F,,,=F,,] [A,_EA]/ !fermata!z/ z z | [D,,,D,,][K:treble] x2 | [f_b] z z | [Adfa] z z | z3 | z3 | %124
[K:bass] [D,,,D,,] z z |] %125
V:6
 x3 | x3 | x3 | x3 | [D,,D,]3 | [B,,,B,,]3 | E,,3 | [A,,,A,,]3 | x3 | [A,,,A,,]3 | x3 | x3 | D,3 | %13
 A,,3 | x3 | x3 | x3 | z2 A, | x3 | x3 | x3 | x3 | x3 | x3 | x3 | x3 | x3 | x3 | x3 | %29
 [=F,,,=F,,] z z | x3 | x3 | x3 | x3 | x3 | x3 | x3 | x3 | x3 | x3 | x3 | x3 | x3 | x3 | x3 | %45
 z _B,2 | x3 | x3 | x3 | x3 | [G,,,G,,]3 | x3 | x3 | z [E,_B,]2 |[M:2/8] z/ [=F,_B,]3/2 | x2 | %56
[M:3/8] z [_B,D] z | x3 | x3 | x3 | x3 | x3 | x3 | x3 | =F,, D,2- | D,=C,E, | z [=F,A,]2 | %67
 D,=C,E, | x3 | x3 | x3 | x3 | x3 | x3 | x3 | x3 | x3 | x3 | x3 | x3 | x3 | x3 | x3 | x3 | x3 | %85
 x3 | x3 || x3 | x3 | x3 | x3 | x3 | x3 | x3 | x3 | x3 | x3 | x3 | x3 | x3 | x3 |1,2 x3 | x3 | x3 | %104
 x3 | x3 | x3 | x3 | x3 | x3 :|3 x3 | x3 | x3 || x3 | x3 | x3 | x3 | x3 | x4 | x[K:treble] x2 | %120
 x3 | x3 | x3 | x3 |[K:bass] x3 |] %125
V:7
 x3 | x3 | x3 | x3 | x3 | x3 | x3 | x3 | x3 | x3 | x3 | x3 | x3 | x3 | x3 | x3 | x3 | x3 | x3 | %19
 x3 | x3 | x3 | x3 | x3 | x3 | x3 | x3 | x3 | x3 | x3 | x3 | x3 | x3 | x3 | x3 | x3 | x3 | x3 | %38
 x3 | x3 | x3 | x3 | x3 | x3 | x3 | x3 | x3 | x3 | x3 | x3 | x3 | x3 | x3 | x3 |[M:2/8] x2 | x2 | %56
[M:3/8] x3 | x3 | x3 | x3 | x3 | x3 | x3 | x3 | x3 | x3 | =F,, z z | x3 | x3 | x3 | x3 | x3 | x3 | %73
 x3 | x3 | x3 | x3 | x3 | x3 | x3 | x3 | x3 | x3 | x3 | x3 | x3 | x3 || x3 | x3 | x3 | x3 | x3 | %92
 x3 | x3 | x3 | x3 | x3 | x3 | x3 | x3 | x3 |1,2 x3 | x3 | x3 | x3 | x3 | x3 | x3 | x3 | x3 :|3 %110
 x3 | x3 | x3 || x3 | x3 | x3 | x3 | x3 | x4 | x[K:treble] x2 | x3 | x3 | x3 | x3 |[K:bass] x3 |] %125

